TH1/LF2.svg

<svg xmlns="http://www.w3.org/2000/svg" viewBox="0 0 1200 800" preserveAspectRatio="none" width="1200" height="800">
 <path d="M0,0H1200V800H0Z" style="fill: white;"></path>
 <g>
  <g transform="translate(120,80)">
   <path d="M0,0H960V640H0Z" style="fill: white; stroke: black; stroke-width: 1;"></path>
   <svg x="0" y="0" overflow="hidden" width="960" height="640" viewBox="0 0 960 640">
    <g>
     <path d="M5,640h10l9,-1l10,1h9h10h10l9,-2l10,-1h9l10,-2l10,1l9,-4l10,-2l9,-1l10,-5h10l9,-7l10,-5l9,-11l10,5l10,-15l9,7l10,-18l9,-21l10,-1l10,-3l9,-36l10,-6l9,-11l10,-17l10,-47l9,-3l10,-25l9,-12l10,-37l10,-14l9,-51l10,-35h9l10,-39l10,-27l9,-69l10,32l9,-54l10,45l10,-53l9,-27l10,17l9,24l10,-36l10,-44l9,73l10,2l9,12l10,4l10,49l9,17l10,12l9,25l10,16l10,9l9,36l10,44l9,13l10,21l10,63l9,-6l10,29l9,24l10,15l10,22l9,18l10,23l9,-1l10,21l10,6l9,16l10,3l9,12l10,7l10,-8l9,12l10,5l9,4h10l10,4l9,-1l10,7l9,-4l10,2l10,3h9h10l9,1h10h10h9h10l9,-1L960,643H0Z" style="fill: blue;"></path>
     <path d="M5,640h10l9,-1l10,1h9h10h10l9,-2l10,-1h9l10,-2l10,1l9,-4l10,-2l9,-1l10,-5h10l9,-7l10,-5l9,-11l10,5l10,-15l9,7l10,-18l9,-21l10,-1l10,-3l9,-36l10,-6l9,-11l10,-17l10,-47l9,-3l10,-25l9,-12l10,-37l10,-14l9,-51l10,-35h9l10,-39l10,-27l9,-69l10,32l9,-54l10,45l10,-53l9,-27l10,17l9,24l10,-36l10,-44l9,73l10,2l9,12l10,4l10,49l9,17l10,12l9,25l10,16l10,9l9,36l10,44l9,13l10,21l10,63l9,-6l10,29l9,24l10,15l10,22l9,18l10,23l9,-1l10,21l10,6l9,16l10,3l9,12l10,7l10,-8l9,12l10,5l9,4h10l10,4l9,-1l10,7l9,-4l10,2l10,3h9h10l9,1h10h10h9h10l9,-1" style="fill: none; stroke: #00009a; stroke-width: 1;"></path>
    </g>
   </svg>
   <g>
    <g transform="translate(0,640)">
     <path d="M0,0h960M0,-24V0M24,-12V0M48,-12V0M72,-12V0M96,-12V0M120,-24V0M144,-12V0M168,-12V0M192,-12V0M216,-12V0M240,-24V0M264,-12V0M288,-12V0M312,-12V0M336,-12V0M360,-24V0M384,-12V0M408,-12V0M432,-12V0M456,-12V0M480,-24V0M504,-12V0M528,-12V0M552,-12V0M576,-12V0M600,-24V0M624,-12V0M648,-12V0M672,-12V0M696,-12V0M720,-24V0M744,-12V0M768,-12V0M792,-12V0M816,-12V0M840,-24V0M864,-12V0M888,-12V0M912,-12V0M936,-12V0M960,-24V0" style="stroke: black; stroke-width: 1;"></path>
     <g font-family="Arial" font-size="28" space="preserve" fill="black" text-anchor="middle">
      <text dy=".8em" transform="translate(0,1)">
       -4
      </text>
      <text dy=".8em" transform="translate(120,1)">
       -3
      </text>
      <text dy=".8em" transform="translate(240,1)">
       -2
      </text>
      <text dy=".8em" transform="translate(360,1)">
       -1
      </text>
      <text dy=".8em" transform="translate(480,1)">
       0
      </text>
      <text dy=".8em" transform="translate(600,1)">
       1
      </text>
      <text dy=".8em" transform="translate(720,1)">
       2
      </text>
      <text dy=".8em" transform="translate(840,1)">
       3
      </text>
      <text dy=".8em" transform="translate(960,1)">
       4
      </text>
     </g>
    </g>
    <g>
     <path d="M0,0v640M36,640H0M18,626H0M18,612H0M18,598H0M18,583H0M36,569H0M18,555H0M18,541H0M18,527H0M18,513H0M36,499H0M18,485H0M18,470H0M18,456H0M18,442H0M36,428H0M18,414H0M18,400H0M18,386H0M18,372H0M36,357H0M18,343H0M18,329H0M18,315H0M18,301H0M36,287H0M18,273H0M18,259H0M18,244H0M18,230H0M36,216H0M18,202H0M18,188H0M18,174H0M18,160H0M36,146H0M18,131H0M18,117H0M18,103H0M18,89H0M36,75H0M18,61H0M18,47H0M18,33H0M18,18H0M36,4H0" style="stroke: black; stroke-width: 1;"></path>
     <g font-family="Arial" font-size="28" space="preserve" fill="black" text-anchor="end">
      <text dy=".4em" transform="translate(-4,640)">
       0
      </text>
      <text dy=".4em" transform="translate(-4,569)">
       100
      </text>
      <text dy=".4em" transform="translate(-4,499)">
       200
      </text>
      <text dy=".4em" transform="translate(-4,428)">
       300
      </text>
      <text dy=".4em" transform="translate(-4,357)">
       400
      </text>
      <text dy=".4em" transform="translate(-4,287)">
       500
      </text>
      <text dy=".4em" transform="translate(-4,216)">
       600
      </text>
      <text dy=".4em" transform="translate(-4,146)">
       700
      </text>
      <text dy=".4em" transform="translate(-4,75)">
       800
      </text>
      <text dy=".4em" transform="translate(-4,4)">
       900
      </text>
     </g>
    </g>
   </g>
  </g>
  <g transform="translate(120,4)" font-family="Arial" font-size="40" space="preserve">
   <text fill="black" text-anchor="middle" dy=".8em" transform="translate(480)">
    This is the px distribution
   </text>
  </g>
  <g transform="translate(936,52)" font-family="Arial" font-size="25" space="preserve" fill="black">
   <path d="M0,0H240V128H0Z" style="fill: white; stroke: black; stroke-width: 1;"></path>
   <text text-anchor="middle" dy=".4em" transform="translate(120,16)">
    hpx
   </text>
   <text text-anchor="start" dy=".4em" transform="translate(12,48)">
    Entries
   </text>
   <text text-anchor="end" dy=".4em" transform="translate(228,48)">
    25000
   </text>
   <text text-anchor="start" dy=".4em" transform="translate(12,80)">
    Mean
   </text>
   <text text-anchor="end" dy=".4em" transform="translate(228,80)">
    0.003163
   </text>
   <text text-anchor="start" dy=".4em" transform="translate(12,112)">
    Std Dev
   </text>
   <text text-anchor="end" dy=".4em" transform="translate(228,112)">
    1.004
   </text>
   <path d="M0,32h240" style="stroke: black; stroke-width: 1;"></path>
  </g>
 </g>
</svg>

<svg xmlns="http://www.w3.org/2000/svg" viewBox="0 0 1200 800" preserveAspectRatio="none" width="1200" height="800">
 <path d="M0,0H1200V800H0Z" style="fill: white;"></path>
 <g>
  <g transform="translate(120,80)">
   <path d="M0,0H960V640H0Z" style="fill: white; stroke: black; stroke-width: 1;"></path>
   <svg x="0" y="0" overflow="hidden" width="960" height="640" viewBox="0 0 960 640">
    <g>
     <path d="M5,640L15,640L24,639L34,640L43,640L53,640L63,640L72,638L82,637L91,637L101,635L111,636L120,632L130,630L139,629L149,624L159,624L168,617L178,612L187,601L197,606L207,591L216,598L226,580L235,559L245,558L255,555L264,519L274,513L283,502L293,485L303,438L312,435L322,410L331,398L341,361L351,347L360,296L370,261L379,261L389,222L399,195L408,126L418,158L427,104L437,149L447,96L456,69L466,86L475,110L485,74L495,30L504,103L514,105L523,117L533,121L543,170L552,187L562,199L571,224L581,240L591,249L600,285L610,329L619,342L629,363L639,426L648,420L658,449L667,473L677,488L687,510L696,528L706,551L715,550L725,571L735,577L744,593L754,596L763,608L773,615L783,607L792,619L802,624L811,628L821,628L831,632L840,631L850,638L859,634L869,636L879,639L888,639L898,639L907,640L917,640L927,640L936,640L946,640L955,639L960,643H0Z" style="fill: blue;"></path>
     <path d="M5,640L15,640L24,639L34,640L43,640L53,640L63,640L72,638L82,637L91,637L101,635L111,636L120,632L130,630L139,629L149,624L159,624L168,617L178,612L187,601L197,606L207,591L216,598L226,580L235,559L245,558L255,555L264,519L274,513L283,502L293,485L303,438L312,435L322,410L331,398L341,361L351,347L360,296L370,261L379,261L389,222L399,195L408,126L418,158L427,104L437,149L447,96L456,69L466,86L475,110L485,74L495,30L504,103L514,105L523,117L533,121L543,170L552,187L562,199L571,224L581,240L591,249L600,285L610,329L619,342L629,363L639,426L648,420L658,449L667,473L677,488L687,510L696,528L706,551L715,550L725,571L735,577L744,593L754,596L763,608L773,615L783,607L792,619L802,624L811,628L821,628L831,632L840,631L850,638L859,634L869,636L879,639L888,639L898,639L907,640L917,640L927,640L936,640L946,640L955,639" style="fill: none; stroke: #00009a; stroke-width: 1;"></path>
    </g>
   </svg>
   <g>
    <g transform="translate(0,640)">
     <path d="M0,0h960M0,-24V0M24,-12V0M48,-12V0M72,-12V0M96,-12V0M120,-24V0M144,-12V0M168,-12V0M192,-12V0M216,-12V0M240,-24V0M264,-12V0M288,-12V0M312,-12V0M336,-12V0M360,-24V0M384,-12V0M408,-12V0M432,-12V0M456,-12V0M480,-24V0M504,-12V0M528,-12V0M552,-12V0M576,-12V0M600,-24V0M624,-12V0M648,-12V0M672,-12V0M696,-12V0M720,-24V0M744,-12V0M768,-12V0M792,-12V0M816,-12V0M840,-24V0M864,-12V0M888,-12V0M912,-12V0M936,-12V0M960,-24V0" style="stroke: black; stroke-width: 1;"></path>
     <g font-family="Arial" font-size="28" space="preserve" fill="black" text-anchor="middle">
      <text dy=".8em" transform="translate(0,1)">
       -4
      </text>
      <text dy=".8em" transform="translate(120,1)">
       -3
      </text>
      <text dy=".8em" transform="translate(240,1)">
       -2
      </text>
      <text dy=".8em" transform="translate(360,1)">
       -1
      </text>
      <text dy=".8em" transform="translate(480,1)">
       0
      </text>
      <text dy=".8em" transform="translate(600,1)">
       1
      </text>
      <text dy=".8em" transform="translate(720,1)">
       2
      </text>
      <text dy=".8em" transform="translate(840,1)">
       3
      </text>
      <text dy=".8em" transform="translate(960,1)">
       4
      </text>
     </g>
    </g>
    <g>
     <path d="M0,0v640M36,640H0M18,626H0M18,612H0M18,598H0M18,583H0M36,569H0M18,555H0M18,541H0M18,527H0M18,513H0M36,499H0M18,485H0M18,470H0M18,456H0M18,442H0M36,428H0M18,414H0M18,400H0M18,386H0M18,372H0M36,357H0M18,343H0M18,329H0M18,315H0M18,301H0M36,287H0M18,273H0M18,259H0M18,244H0M18,230H0M36,216H0M18,202H0M18,188H0M18,174H0M18,160H0M36,146H0M18,131H0M18,117H0M18,103H0M18,89H0M36,75H0M18,61H0M18,47H0M18,33H0M18,18H0M36,4H0" style="stroke: black; stroke-width: 1;"></path>
     <g font-family="Arial" font-size="28" space="preserve" fill="black" text-anchor="end">
      <text dy=".4em" transform="translate(-4,640)">
       0
      </text>
      <text dy=".4em" transform="translate(-4,569)">
       100
      </text>
      <text dy=".4em" transform="translate(-4,499)">
       200
      </text>
      <text dy=".4em" transform="translate(-4,428)">
       300
      </text>
      <text dy=".4em" transform="translate(-4,357)">
       400
      </text>
      <text dy=".4em" transform="translate(-4,287)">
       500
      </text>
      <text dy=".4em" transform="translate(-4,216)">
       600
      </text>
      <text dy=".4em" transform="translate(-4,146)">
       700
      </text>
      <text dy=".4em" transform="translate(-4,75)">
       800
      </text>
      <text dy=".4em" transform="translate(-4,4)">
       900
      </text>
     </g>
    </g>
   </g>
  </g>
  <g transform="translate(120,4)" font-family="Arial" font-size="40" space="preserve">
   <text fill="black" text-anchor="middle" dy=".8em" transform="translate(480)">
    This is the px distribution
   </text>
  </g>
  <g transform="translate(936,52)" font-family="Arial" font-size="25" space="preserve" fill="black">
   <path d="M0,0H240V128H0Z" style="fill: white; stroke: black; stroke-width: 1;"></path>
   <text text-anchor="middle" dy=".4em" transform="translate(120,16)">
    hpx
   </text>
   <text text-anchor="start" dy=".4em" transform="translate(12,48)">
    Entries
   </text>
   <text text-anchor="end" dy=".4em" transform="translate(228,48)">
    25000
   </text>
   <text text-anchor="start" dy=".4em" transform="translate(12,80)">
    Mean
   </text>
   <text text-anchor="end" dy=".4em" transform="translate(228,80)">
    0.003163
   </text>
   <text text-anchor="start" dy=".4em" transform="translate(12,112)">
    Std Dev
   </text>
   <text text-anchor="end" dy=".4em" transform="translate(228,112)">
    1.004
   </text>
   <path d="M0,32h240" style="stroke: black; stroke-width: 1;"></path>
  </g>
 </g>
</svg>
